X: 30
T: VALSE A PERRONNE
C: Marc PERRONNE
M: 3/4
L: 1/8
Q:1/4=120
K:G 
|:G3/2 z/2 G FGA|BEB EdE|c3/2 z/2 c dcB|ADA DcD|
B3/2 z/2 B cBA|GEG EBE|A3/2 z/2 A BAG|FDF DFD:|!
G3/2 z/2 A3/2 z/2 F3/2 z/2 |G3/2 z/2 F GBA|G7/2 z/2 Bd|c3/2 z/2 c dcB|
|:ADA DcD|B3/2 z/2 B cBA|GEG EBE|A3/2 z/2 A BAG|FDF DFD|GFG ABc|dDd DdD|
1c3/2 z/2 c dcB:|2F3/2 z/2 B3/2 z/2 A3/2 z/2 |
G3/2 z/2 F GBA|G3|
